_includes/icons/ios-ai.svg

<svg fill="#666" height="50" viewBox="0 0 50 50" width="50" xmlns="http://www.w3.org/2000/svg"><path d="m8 2v46h36v-32.589844l-13.816406-13.410156zm2 2h19v12.917969h13v29.082031h-32zm21 1.578125 9.621094 9.339844h-9.621094zm-8.6875 16.867188-2.191406 10.109375h1.90625l.449219-2.308594h1.8125l.433593 2.308594h1.90625l-1.964843-10.109375zm5.425781 0v10.109375h1.964844v-10.109375zm-4.332031 1.859375h.042969c.089844.675781.226562 1.679687.332031 2.292968l.328125 2.117188h-1.4375l.375-2.101563c.101563-.582031.253906-1.632812.359375-2.308593z"/></svg>

<svg xmlns="http://www.w3.org/2000/svg" viewBox="0 0 50 50" width="50" height="50" fill="#666"><path d="M 8 2 L 8 48 L 44 48 L 44 15.410156 L 30.183594 2 Z M 10 4 L 29 4 L 29 16.917969 L 42 16.917969 L 42 46 L 10 46 Z M 31 5.578125 L 40.621094 14.917969 L 31 14.917969 Z M 22.3125 22.445313 L 20.121094 32.554688 L 22.027344 32.554688 L 22.476563 30.246094 L 24.289063 30.246094 L 24.722656 32.554688 L 26.628906 32.554688 L 24.664063 22.445313 Z M 27.738281 22.445313 L 27.738281 32.554688 L 29.703125 32.554688 L 29.703125 22.445313 Z M 23.40625 24.304688 L 23.449219 24.304688 C 23.539063 24.980469 23.675781 25.984375 23.78125 26.597656 L 24.109375 28.714844 L 22.671875 28.714844 L 23.046875 26.613281 C 23.148438 26.03125 23.300781 24.980469 23.40625 24.304688 Z"/></svg>
